src/catppuccin-frappe-maroon-cursors/row-resize.svg

<?xml version="1.0" encoding="UTF-8" standalone="no"?>
<svg
   id="svg5327"
   width="32"
   height="32"
   version="1.1"
   sodipodi:docname="row-resize.svg"
   inkscape:version="1.1.2 (0a00cf5339, 2022-02-04)"
   xmlns:inkscape="http://www.inkscape.org/namespaces/inkscape"
   xmlns:sodipodi="http://sodipodi.sourceforge.net/DTD/sodipodi-0.dtd"
   xmlns="http://www.w3.org/2000/svg"
   xmlns:svg="http://www.w3.org/2000/svg">
  <sodipodi:namedview
     id="namedview33680"
     pagecolor="#ffffff"
     bordercolor="#666666"
     borderopacity="1.0"
     inkscape:pageshadow="2"
     inkscape:pageopacity="0.0"
     inkscape:pagecheckerboard="0"
     showgrid="false"
     inkscape:zoom="25.96875"
     inkscape:cx="16.019254"
     inkscape:cy="16.019254"
     inkscape:window-width="1896"
     inkscape:window-height="1020"
     inkscape:window-x="9"
     inkscape:window-y="45"
     inkscape:window-maximized="1"
     inkscape:current-layer="svg5327" />
  <defs
     id="defs5329">
    <filter
       id="filter873"
       style="color-interpolation-filters:sRGB"
       width="1.128"
       height="1.113"
       x="-.06"
       y="-.06">
      <feGaussianBlur
         id="feGaussianBlur875"
         stdDeviation=".587" />
    </filter>
    <filter
       id="filter822"
       style="color-interpolation-filters:sRGB"
       width="1.1538182"
       height="1.1353615"
       x="-0.076909089"
       y="-0.067680752">
      <feGaussianBlur
         id="feGaussianBlur824"
         stdDeviation=".705" />
    </filter>
  </defs>
  <path
     id="path839"
     style="color:#000000;font-style:normal;font-variant:normal;font-weight:normal;font-stretch:normal;font-size:medium;line-height:normal;font-family:sans-serif;font-variant-ligatures:normal;font-variant-position:normal;font-variant-caps:normal;font-variant-numeric:normal;font-variant-alternates:normal;font-feature-settings:normal;text-indent:0;text-align:start;text-decoration:none;text-decoration-line:none;text-decoration-style:solid;text-decoration-color:#000000;letter-spacing:normal;word-spacing:normal;text-transform:none;writing-mode:lr-tb;direction:ltr;text-orientation:mixed;dominant-baseline:auto;baseline-shift:baseline;text-anchor:start;white-space:normal;shape-padding:0;clip-rule:nonzero;display:inline;overflow:visible;visibility:visible;opacity:0.2;isolation:auto;mix-blend-mode:normal;color-interpolation:sRGB;color-interpolation-filters:linearRGB;solid-color:#000000;solid-opacity:1;vector-effect:none;fill:#000000;fill-opacity:1;fill-rule:nonzero;stroke:none;stroke-width:2;stroke-linecap:round;stroke-linejoin:round;stroke-miterlimit:4;stroke-dasharray:none;stroke-dashoffset:0;stroke-opacity:1;paint-order:normal;color-rendering:auto;image-rendering:auto;shape-rendering:auto;text-rendering:auto;enable-background:accumulate;filter:url(#filter822)"
     d="m 16.507812,3.5003368 a 1.0001,1.0001 0 0 0 -0.859374,0.4707031 l -4.996094,7.9999991 a 1.0001,1.0001 0 0 0 1.523437,1.267578 c 0.92969,-0.851388 2.645043,-1.739368 4.320313,-1.738281 1.678831,0.0011 3.40021,0.884104 4.326172,1.736328 a 1.0001,1.0001 0 0 0 1.52539,-1.267578 L 17.34375,3.9690868 a 1.0001,1.0001 0 0 0 -0.835938,-0.46875 z M 6.5,14.500336 a 1.0001,1.0001 0 0 0 -1,1 v 1 a 1.0001,1.0001 0 0 0 1,1 h 20 a 1.0001,1.0001 0 0 0 1,-1 v -1 a 1.0001,1.0001 0 0 0 -1,-1 z m 5.041016,4 a 1.0001,1.0001 0 0 0 -0.888672,1.529297 l 4.996094,8 a 1.0001,1.0001 0 0 0 1.695312,0.002 l 5.003906,-8 a 1.0001,1.0001 0 0 0 -0.818359,-1.531297 1.0001,1.0001 0 0 0 -0.707031,0.263672 c -0.925962,0.852224 -2.647341,1.735229 -4.326172,1.736328 -1.67527,0.0011 -3.390623,-0.886893 -4.320313,-1.738281 a 1.0001,1.0001 0 0 0 -0.634765,-0.261719 z" />
  <path
     id="path836"
     style="color:#000000;font-style:normal;font-variant:normal;font-weight:normal;font-stretch:normal;font-size:medium;line-height:normal;font-family:sans-serif;font-variant-ligatures:normal;font-variant-position:normal;font-variant-caps:normal;font-variant-numeric:normal;font-variant-alternates:normal;font-feature-settings:normal;text-indent:0;text-align:start;text-decoration:none;text-decoration-line:none;text-decoration-style:solid;text-decoration-color:#000000;letter-spacing:normal;word-spacing:normal;text-transform:none;writing-mode:lr-tb;direction:ltr;text-orientation:mixed;dominant-baseline:auto;baseline-shift:baseline;text-anchor:start;white-space:normal;shape-padding:0;clip-rule:nonzero;display:inline;overflow:visible;visibility:visible;opacity:1;isolation:auto;mix-blend-mode:normal;color-interpolation:sRGB;color-interpolation-filters:linearRGB;solid-color:#000000;solid-opacity:1;vector-effect:none;fill:#303446;fill-opacity:1;fill-rule:nonzero;stroke:none;stroke-width:2;stroke-linecap:round;stroke-linejoin:round;stroke-miterlimit:4;stroke-dasharray:none;stroke-dashoffset:0;stroke-opacity:1;paint-order:normal;color-rendering:auto;image-rendering:auto;shape-rendering:auto;text-rendering:auto;enable-background:accumulate"
     d="M 16.007812 3 A 1.0001 1.0001 0 0 0 15.148438 3.4707031 L 10.152344 11.470703 A 1.0001 1.0001 0 0 0 11.675781 12.738281 C 12.605471 11.886893 14.320824 10.998913 15.996094 11 C 17.674925 11.0011 19.396304 11.884104 20.322266 12.736328 A 1.0001 1.0001 0 0 0 21.847656 11.46875 L 16.84375 3.46875 A 1.0001 1.0001 0 0 0 16.007812 3 z M 6 14 A 1.0001 1.0001 0 0 0 5 15 L 5 16 A 1.0001 1.0001 0 0 0 6 17 L 26 17 A 1.0001 1.0001 0 0 0 27 16 L 27 15 A 1.0001 1.0001 0 0 0 26 14 L 6 14 z M 11.041016 18 A 1.0001 1.0001 0 0 0 10.152344 19.529297 L 15.148438 27.529297 A 1.0001 1.0001 0 0 0 16.84375 27.53125 L 21.847656 19.53125 A 1.0001 1.0001 0 0 0 21.029297 18 A 1.0001 1.0001 0 0 0 20.322266 18.263672 C 19.396304 19.115896 17.674925 19.998901 15.996094 20 C 14.320824 20.0011 12.605471 19.113107 11.675781 18.261719 A 1.0001 1.0001 0 0 0 11.041016 18 z" />
  <path
     id="path819"
     style="opacity:1;fill:#EA999C;fill-opacity:1;stroke:none;stroke-width:0;stroke-linecap:round;stroke-linejoin:round;stroke-miterlimit:4;stroke-dasharray:none;stroke-dashoffset:0;stroke-opacity:1;paint-order:normal"
     d="M 15.996094,4 11,12 C 12.108006,10.985314 13.992188,9.9987 15.996094,10 18,10.001312 19.891398,10.97968 21,12 Z M 6,15 v 1 h 20 v -1 z m 5,4 4.996094,8 L 21,19 c -1.108602,1.02032 -3,1.998688 -5.003906,2 C 13.992188,21.0013 12.108006,20.014686 11,19 Z" />
</svg>

<svg xmlns="http://www.w3.org/2000/svg" width="32" height="32">
    <defs>
        <filter id="a" width="1.154" height="1.135" x="-.077" y="-.068" style="color-interpolation-filters:sRGB">
            <feGaussianBlur stdDeviation=".705"/>
        </filter>
    </defs>
    <path d="M16.508 3.5a1 1 0 0 0-.86.471l-4.996 8a1 1 0 0 0 1.524 1.268c.93-.852 2.645-1.74 4.32-1.739 1.679.001 3.4.884 4.326 1.737a1 1 0 0 0 1.526-1.268l-5.004-8a1 1 0 0 0-.836-.469M6.5 14.5a1 1 0 0 0-1 1v1a1 1 0 0 0 1 1h20a1 1 0 0 0 1-1v-1a1 1 0 0 0-1-1zm5.041 4a1 1 0 0 0-.889 1.53l4.996 8a1 1 0 0 0 1.696.002l5.004-8a1 1 0 0 0-.819-1.532 1 1 0 0 0-.707.264c-.926.852-2.647 1.735-4.326 1.736-1.675.001-3.39-.887-4.32-1.738a1 1 0 0 0-.635-.262" style="color:#000;font-style:normal;font-variant:normal;font-weight:400;font-stretch:normal;font-size:medium;line-height:normal;font-family:sans-serif;font-variant-ligatures:normal;font-variant-position:normal;font-variant-caps:normal;font-variant-numeric:normal;font-variant-alternates:normal;font-feature-settings:normal;text-indent:0;text-align:start;text-decoration:none;text-decoration-line:none;text-decoration-style:solid;text-decoration-color:#000;letter-spacing:normal;word-spacing:normal;text-transform:none;writing-mode:lr-tb;direction:ltr;text-orientation:mixed;dominant-baseline:auto;baseline-shift:baseline;text-anchor:start;white-space:normal;shape-padding:0;clip-rule:nonzero;display:inline;overflow:visible;visibility:visible;opacity:.2;isolation:auto;mix-blend-mode:normal;color-interpolation:sRGB;color-interpolation-filters:linearRGB;solid-color:#000;solid-opacity:1;vector-effect:none;fill:#000;fill-opacity:1;fill-rule:nonzero;stroke:none;stroke-width:2;stroke-linecap:round;stroke-linejoin:round;stroke-miterlimit:4;stroke-dasharray:none;stroke-dashoffset:0;stroke-opacity:1;paint-order:normal;color-rendering:auto;image-rendering:auto;shape-rendering:auto;text-rendering:auto;enable-background:accumulate;filter:url(#a)"/>
    <path d="M16.008 3a1 1 0 0 0-.86.47l-4.996 8a1 1 0 0 0 1.524 1.268c.93-.851 2.645-1.74 4.32-1.738 1.679.001 3.4.884 4.326 1.736a1 1 0 0 0 1.526-1.267l-5.004-8A1 1 0 0 0 16.008 3M6 14a1 1 0 0 0-1 1v1a1 1 0 0 0 1 1h20a1 1 0 0 0 1-1v-1a1 1 0 0 0-1-1zm5.041 4a1 1 0 0 0-.889 1.53l4.996 8a1 1 0 0 0 1.696.001l5.004-8A1 1 0 0 0 21.029 18a1 1 0 0 0-.707.264c-.926.852-2.647 1.735-4.326 1.736-1.675.001-3.39-.887-4.32-1.738A1 1 0 0 0 11.04 18" style="color:#000;font-style:normal;font-variant:normal;font-weight:400;font-stretch:normal;font-size:medium;line-height:normal;font-family:sans-serif;font-variant-ligatures:normal;font-variant-position:normal;font-variant-caps:normal;font-variant-numeric:normal;font-variant-alternates:normal;font-feature-settings:normal;text-indent:0;text-align:start;text-decoration:none;text-decoration-line:none;text-decoration-style:solid;text-decoration-color:#000;letter-spacing:normal;word-spacing:normal;text-transform:none;writing-mode:lr-tb;direction:ltr;text-orientation:mixed;dominant-baseline:auto;baseline-shift:baseline;text-anchor:start;white-space:normal;shape-padding:0;clip-rule:nonzero;display:inline;overflow:visible;visibility:visible;opacity:1;isolation:auto;mix-blend-mode:normal;color-interpolation:sRGB;color-interpolation-filters:linearRGB;solid-color:#000;solid-opacity:1;vector-effect:none;fill:#303446;fill-opacity:1;fill-rule:nonzero;stroke:none;stroke-width:2;stroke-linecap:round;stroke-linejoin:round;stroke-miterlimit:4;stroke-dasharray:none;stroke-dashoffset:0;stroke-opacity:1;paint-order:normal;color-rendering:auto;image-rendering:auto;shape-rendering:auto;text-rendering:auto;enable-background:accumulate"/>
    <path d="M15.996 4 11 12c1.108-1.015 2.992-2.001 4.996-2s3.895.98 5.004 2ZM6 15v1h20v-1zm5 4 4.996 8L21 19c-1.109 1.02-3 1.999-5.004 2s-3.888-.985-4.996-2" style="opacity:1;fill:#ea999c;fill-opacity:1;stroke:none;stroke-width:0;stroke-linecap:round;stroke-linejoin:round;stroke-miterlimit:4;stroke-dasharray:none;stroke-dashoffset:0;stroke-opacity:1;paint-order:normal"/>
</svg>
